X:1
T:Title
%%score ( 1 2 ) ( 3 4 )
L:1/8
Q:1/4=100
M:4/4
K:Ab
V:1 treble nm="Grand Piano, Soprano"
V:2 treble 
V:3 bass nm="Choir Pad, Tell the Story"
V:4 bass 
V:1
 z2 A6 | z2 z F- F3- F/ z/ | FF C2 C2 C[EA] | [=Dc][DA] B2- [DB-][DB-] [EB]2 | %4
 cc e2- [Ae-]2 [Ae][Ac] | [Ae][Af][Ae]c- [Ac-][Ac-] [Ac-][A-c]/A/ | z2 c6 | z2 A6 | %8
 Ac e2- [Ae-]2 [Ae][Ac] | [Ae][Af][Ae]c- [Ac-][Ac-] [Ac-][A-c]/A/ | dc F2 F2 F[FB] | %11
 [FA][DF] [CE]2 z D C2 | Ac e2- [Ae-]2 [Ae][Ac] | [Ae][Af][Ae]c- [Ac-][Ac-] [Ac-][A-c]/A/ | z2 c6 | %15
 z2 A6- | A4 z4 |] %17
V:2
 EF C2 C2 C[DB] | [Ec][EB][FA]D DDDD | z2 E6 | z2 E2 z4 | z2 A2 z4 | z2 z A z4 | AA E2 F2 E[EA] | %7
 [Ec][DB] C2 DD C2 | z2 A2 z4 | z2 z A z4 | z2 A6 | z4 E4 | z2 A2 z4 | z2 z A z4 | AA E2 F2 E[EA] | %15
 [Ec][DB] C2 DD C2- | C4 z4 |] %17
V:3
 z2 [A,,E,]2 [A,,E,]2 [A,,E,][A,,E,] | [A,,A,][C,A,][D,A,][D,A,] [D,A,][D,A,][D,A,][D,A,] | %2
 z2 [A,,A,]2 [A,,A,]2 [A,,A,][C,A,] | [B,,A,][B,,F,] [E,G,]2 [B,,F,][B,,A,] [E,G,]2 | %4
 z2 [A,C]2 [A,C]2 [A,C][A,E] | [A,C][A,D][A,C][A,E] [F,F][F,F][A,E][A,E] | %6
 z2 A,2 [F,A,]2 [C,A,][C,A,] | [E,A,][E,G,] A,2 F,F, E,2 | z2 [A,C]2 [A,C]2 [A,C][A,E] | %9
 [A,C][A,D][A,C][A,E] [F,F][F,F][A,E][A,E] | z2 [D,D]2 [D,D]2 [D,D][D,D] | %11
 [D,D][D,A,] [A,,A,]2 [B,,A,][E,G,] [A,,A,]2 | z2 [A,C]2 [A,C]2 [A,C][A,E] | %13
 [A,C][A,D][A,C][A,E] [F,F][F,F][A,E][A,E] | z2 A,2 [F,A,]2 [C,A,][C,A,] | %15
 [E,A,][E,G,] A,2 F,F, E,2- | E,4 z4 |] %17
V:4
 x8 | x8 | x8 | x8 | x8 | x8 | x8 | z2 A,,6 | x8 | x8 | x8 | x8 | x8 | x8 | x8 | z2 A,,6- | %16
 A,,4 z4 |] %17

